X:2709
T:Seann Triubhas Willichan
P:My Dearie
C:James Johnstone 1771
R:Strathspey (8x32)
B:RSCDS 27-9
Z:Anselm Lingnau <anselm@strathspey.org>
M:4/4
L:1/8
K:G
BA|"G"G2 D2 "C"DE"G"GB,|"G"D3 E D2 GA|"G"BAGF "Em"EFED|"Am"E2 A2 "D"A2 B2|
   "G"D3 E G3 B|"Am"AGAB "Bm"d3 e|"G"d2 cB "C"cBAG|"C"E2 G2 "G"G2||
Bc|"G"d3 e degB|"Am"AGAB "Bm"d2 "D"Bd|"Em"e>fgf "Bm"edBd|"Am"e4-"D7"e2 f2|
   "G"g2 dc "Em"B2 AG|"Am"A>GAB "Bm"d2 e2|"G"d>egB "C"cBAG|"C"E2 G2 "G"G2|]
